public/pieces/anarcandy/bN.svg

<svg fill="none" height="512" viewBox="0 0 512 512" width="512" xmlns="http://www.w3.org/2000/svg"><path clip-rule="evenodd" d="m250.789 286.194v31.197c0 3.412-.32 6.816-1.234 10.102-5.216 18.755-20.472 53.094-49.625 72.53-27.838 18.559-33.823 54.992-33.306 77.157.118 5.052 4.408 8.82 9.46 8.82h285.611c5.318 0 9.713-4.142 9.902-9.457 3.852-108.181-19.056-314.692-140.229-357.698-4.391-1.558-9.077-2.183-13.736-2.183l-25.135-.792-27.176.792-21.797-42.3828c-2.019-3.2292-7.508-7.75-13.321 0-5.812 7.75-20.989 20.1824-27.852 25.4298l-50.859-27.8517c-4.037-1.6146-12.11-2.4219-12.11 7.2656 0 9.6876 1.615 39.5571 2.422 53.2811-9.883 7.578-27.834 24.244-34.099 39.596h-30.4581c-10.0211 0-19.4251 4.166-26.4531 11.739-2.9291 3.145-5.0792 6.815-6.8477 10.667-.4475.588-.7345 1.255-.8843 2.003-2.5672 6.502-3.6743 13.599-2.7259 20.859l.2229 1.629c.9805 7.441 3.5887 14.225 7.2096 20.253.2763.88.7345 1.659 1.4262 2.265 7.0926 10.534 17.7146 18.125 29.8695 20.661-6.5713 11.151-13.0476 21.487-17.182 26.54-10.8985 13.321-31.4846 81.133 33.9064 94.454 9.6875 14.935 35.1175 31.242 59.3365-23.008 3.229-10.091 14.773-32.453 35.117-41.172 25.43-10.899 58.125-29.063 60.547-32.696zm-175.0256 53.649c5.2399-1.839 14.9002-5.884 20.2887-13.069 3.4876-4.65-.082-9.284-3.4956-12.248-2.5949-2.252-6.335-2.237-9.1599-.281-3.2422 2.246-7.1692 5.471-8.2853 8.541-1.7992 4.948-1.1036 12.406-.6471 16.243.0746.626.7037 1.023 1.2992.814zm80.5726-245.9106 1.541 25.9266 22.437-12.465z" fill="#00173c" fill-rule="evenodd"/><path clip-rule="evenodd" d="m233.187 200.834c-1.283-2.78-3.552-7.064-5.677-9.34-5.099-5.48-11.922-8.494-19.199-8.494h-131.2882c-7.2703 0-14.093 3.014-19.1918 8.494-2.1251 2.276-3.685 4.931-4.9681 7.719-.3246.425-.5329.907-.6415 1.449-1.8626 4.704-2.6658 9.84-1.9777 15.093l.1617 1.178c.7114 5.384 2.6037 10.293 5.2306 14.655.2005.637.5329 1.2 1.0348 1.639 6.3753 9.444 16.6813 15.618 28.1631 15.618h9.7732c13.5279 0 26.0519-5.868 35.2709-15.671.023-.022.042-.044.062-.066.019-.022.039-.044.062-.066 4.079-4.368 7.486-9.489 10.02-15.291.146-.241.27-.482.364-.753.064-.151.139-.296.214-.442.089-.171.178-.342.249-.523 1.892-4.771 2.086-9.811 1.027-14.596 0-.026.007-.05.015-.074s.016-.047.016-.072c0-.63-.209-1.193-.502-1.705-.796-2.598-1.863-5.121-3.524-7.389-.494-.659-1.003-1.287-1.536-1.88h12.655c-.533.593-1.051 1.222-1.523 1.873-1.66 2.268-2.727 4.792-3.523 7.389-.3.519-.51 1.082-.51 1.712 0 .026.008.05.016.074.008.023.015.047.015.072-1.058 4.785-.857 9.832 1.043 14.632.065.167.146.323.227.48.072.139.144.28.206.428.093.285.224.549.387.797 2.472 5.677 5.802 10.704 9.781 15.013.021.026.042.052.063.078.108.132.21.259.347.375 9.209 9.76 21.71 15.605 35.207 15.605h9.774c11.48 0 21.787-6.174 28.161-15.627.502-.438.835-1.002 1.035-1.639 2.619-4.36 4.519-9.269 5.231-14.654l.161-1.193c.374-2.841.308-5.652-.128-8.38 19.393-17.584 39.718-16.955 47.752-14.277 5.6-.001 13.439-1.681 0-8.4-13.105-6.553-37.923 7.659-49.535 16.159zm-11.291 1.676c-.551-1.018-1.211-2.064-1.961-2.962-.134-.165-.252-.343-.371-.52-.157-.236-.315-.472-.509-.682-3.323-3.607-7.701-5.591-12.322-5.591h-39.578c-4.075 0-7.891 2.045-10.481 5.612-.151.21-.262.44-.373.671-.083.173-.167.345-.267.51-.351.682-.867 1.784-1.323 2.962zm-64.446 17.42c.404.718.831 1.413 1.276 2.09h64.118c.22-.684.417-1.381.594-2.09.327-1.51.969-4.982.919-6.794.009-.372.012-.744.007-1.115h-70.198c.093.374.197.746.313 1.115.446 1.391 1.666 4.696 2.971 6.794zm12.196 13.587c-.621-.407-1.489-1.134-2.429-1.986h50.259c-.625.767-1.22 1.47-1.667 1.986-4.394 4.239-10.107 6.793-16.24 6.793h-8.978c-7.594 0-14.806-2.466-20.945-6.793zm-106.2019-31.007h67.1849c-.456-1.178-.973-2.28-1.323-2.962-.1-.165-.184-.337-.267-.509-.111-.232-.222-.462-.373-.672-2.59-3.567-6.406-5.612-10.481-5.612h-39.5777c-4.6209 0-8.9997 1.984-12.3221 5.591-.1944.21-.352.446-.5093.681-.1185.178-.2369.355-.3711.521-.7494.898-1.4099 1.944-1.9607 2.962zm64.4459 17.42c-.404.717-.83 1.413-1.275 2.09h-64.1194c-.2193-.684-.4168-1.381-.5934-2.09-.3274-1.51-.9696-4.982-.919-6.794-.0092-.372-.0119-.744-.0075-1.115h70.1983c-.093.374-.197.746-.313 1.115-.446 1.391-1.666 4.696-2.971 6.794zm-9.766 11.601h-50.2604c.6253.767 1.2199 1.47 1.667 1.986 4.394 4.239 10.1076 6.793 16.2403 6.793h8.9784c7.5937 0 14.8057-2.466 20.9447-6.793.621-.407 1.489-1.135 2.43-1.986z" fill="#ff385c" fill-rule="evenodd"/><g fill="#ff9cae"><path d="m156.336 93.9324 1.541 25.9266 22.437-12.465z"/><path d="m124.286 359.868c-1.575 3.077-2.715 5.357-3.336 6.942-3.161 5.523-7.368 6.58-12.901 3.326-5.958-3.243-6.663-7.274-2.01-12.103 1.294-.937 2.345-2.17 3.067-3.595 4.653-9.74 8.6-14.652 12.02-14.652 4.652 0 7.191 2.456 7.46 7.191 0 1.41-1.398 5.71-4.3 12.891z"/><path d="m272.544 271.439c12.02-15.791 17.905-33.334 17.719-52.638-.694-5.699-3.938-8.497-9.74-8.497-7.886 0-10.953 2.891-9.295 8.673.528 9.481-.342 17.284-2.798 23.428-3.958 9.74-8.341 17.025-13.076 21.843-2.632 5.181-1.057 8.953 4.652 11.315 5.44 2.549 9.647 1.233 12.538-4.124z"/><path d="m435.453 458c2.578 0 4.732-1.898 4.937-4.467 6.714-84.042-14.19-253.973-113.89-306.033-.427-.142-.948-.334-1.571-.562-5.421-1.991-18.49-6.79-42.971-6.253-3.554.078-5.76 3.824-4.212 7.024l1.703 3.52c1.576 3.255 4.772 5.344 8.343 5.916 47.421 7.601 127.722 75.488 115.524 295.452-.159 2.878 2.119 5.403 5.002 5.403z"/><path d="m75.7633 339.843c5.2399-1.838 14.9002-5.884 20.2887-13.069 3.4876-4.65-.082-9.284-3.4956-12.247-2.5949-2.253-6.335-2.238-9.1599-.282-3.2421 2.246-7.1692 5.471-8.2853 8.541-1.7992 4.948-1.1036 12.407-.6471 16.243.0746.626.7037 1.023 1.2992.814z"/></g></svg>

<svg width="512" height="512" viewBox="0 0 512 512" fill="none" xmlns="http://www.w3.org/2000/svg">
<path fill-rule="evenodd" clip-rule="evenodd" d="M250.789 286.194V317.391C250.789 320.803 250.469 324.207 249.555 327.493C244.339 346.248 229.083 380.587 199.93 400.023C172.092 418.582 166.107 455.015 166.624 477.18C166.742 482.232 171.032 486 176.084 486H461.695C467.013 486 471.408 481.858 471.597 476.543C475.449 368.362 452.541 161.851 331.368 118.845C326.977 117.287 322.291 116.662 317.632 116.662L292.497 115.87L265.321 116.662L243.524 74.2792C241.505 71.05 236.016 66.5292 230.203 74.2792C224.391 82.0292 209.214 94.4616 202.351 99.709L151.492 71.8573C147.455 70.2427 139.382 69.4354 139.382 79.1229C139.382 88.8105 140.997 118.68 141.804 132.404C131.921 139.982 113.97 156.648 107.705 172H77.2469C67.2258 172 57.8218 176.166 50.7938 183.739C47.8647 186.884 45.7146 190.554 43.9461 194.406C43.4986 194.994 43.2116 195.661 43.0618 196.409C40.4946 202.911 39.3875 210.008 40.3359 217.268L40.5588 218.897C41.5393 226.338 44.1475 233.122 47.7684 239.15C48.0447 240.03 48.5029 240.809 49.1946 241.415C56.2872 251.949 66.9092 259.54 79.0641 262.076C72.4928 273.227 66.0165 283.563 61.8821 288.616C50.9836 301.937 30.3975 369.749 95.7885 383.07C105.476 398.005 130.906 414.312 155.125 360.062C158.354 349.971 169.898 327.609 190.242 318.89C215.672 307.991 248.367 289.827 250.789 286.194ZM75.7634 339.843C81.0033 338.004 90.6636 333.959 96.0521 326.774C99.5397 322.124 95.9701 317.49 92.5565 314.526C89.9616 312.274 86.2215 312.289 83.3966 314.245C80.1544 316.491 76.2274 319.716 75.1113 322.786C73.3121 327.734 74.0077 335.192 74.4642 339.029C74.5388 339.655 75.1679 340.052 75.7634 339.843ZM156.336 93.9324L157.877 119.859L180.314 107.394L156.336 93.9324Z" fill="#00173C"/>
<path fill-rule="evenodd" clip-rule="evenodd" d="M233.187 200.834C231.904 198.054 229.635 193.77 227.51 191.494C222.411 186.014 215.588 183 208.311 183H77.0228C69.7525 183 62.9298 186.014 57.831 191.494C55.7059 193.77 54.146 196.425 52.8629 199.213C52.5383 199.638 52.33 200.12 52.2214 200.662C50.3588 205.366 49.5556 210.502 50.2437 215.755L50.4054 216.933C51.1168 222.317 53.0091 227.226 55.636 231.588C55.8365 232.225 56.1689 232.788 56.6708 233.227C63.0461 242.671 73.3521 248.845 84.8339 248.845H94.6071C108.135 248.845 120.659 242.977 129.878 233.174C129.901 233.152 129.92 233.13 129.94 233.108C129.959 233.086 129.979 233.064 130.002 233.042C134.081 228.674 137.488 223.553 140.022 217.751C140.168 217.51 140.292 217.269 140.386 216.998C140.45 216.847 140.525 216.702 140.6 216.556C140.689 216.385 140.778 216.214 140.849 216.033C142.741 211.262 142.935 206.222 141.876 201.437C141.876 201.411 141.883 201.387 141.891 201.363C141.899 201.339 141.907 201.316 141.907 201.291C141.907 200.661 141.698 200.098 141.405 199.586C140.609 196.988 139.542 194.465 137.881 192.197C137.387 191.538 136.878 190.91 136.345 190.317H149C148.467 190.91 147.949 191.539 147.477 192.19C145.817 194.458 144.75 196.982 143.954 199.579C143.654 200.098 143.444 200.661 143.444 201.291C143.444 201.317 143.452 201.341 143.46 201.365C143.468 201.388 143.475 201.412 143.475 201.437C142.417 206.222 142.618 211.269 144.518 216.069C144.583 216.236 144.664 216.392 144.745 216.549C144.817 216.688 144.889 216.829 144.951 216.977C145.044 217.262 145.175 217.526 145.338 217.774C147.81 223.451 151.14 228.478 155.119 232.787C155.14 232.813 155.161 232.839 155.182 232.865C155.29 232.997 155.392 233.124 155.529 233.24C164.738 243 177.239 248.845 190.736 248.845H200.51C211.99 248.845 222.297 242.671 228.671 233.218C229.173 232.78 229.506 232.216 229.706 231.579C232.325 227.219 234.225 222.31 234.937 216.925L235.098 215.732C235.472 212.891 235.406 210.08 234.97 207.352C254.363 189.768 274.688 190.397 282.722 193.075C288.322 193.074 296.161 191.394 282.722 184.675C269.617 178.122 244.799 192.334 233.187 200.834ZM221.896 202.51C221.345 201.492 220.685 200.446 219.935 199.548C219.801 199.383 219.683 199.205 219.564 199.028C219.407 198.792 219.249 198.556 219.055 198.346C215.732 194.739 211.354 192.755 206.733 192.755H167.155C163.08 192.755 159.264 194.8 156.674 198.367C156.523 198.577 156.412 198.807 156.301 199.038C156.218 199.211 156.134 199.383 156.034 199.548C155.683 200.23 155.167 201.332 154.711 202.51H221.896ZM157.45 219.93C157.854 220.648 158.281 221.343 158.726 222.02H222.844C223.064 221.336 223.261 220.639 223.438 219.93C223.765 218.42 224.407 214.948 224.357 213.136C224.366 212.764 224.369 212.392 224.364 212.021H154.166C154.259 212.395 154.363 212.767 154.479 213.136C154.925 214.527 156.145 217.832 157.45 219.93ZM169.646 233.517C169.025 233.11 168.157 232.383 167.217 231.531H217.476C216.851 232.298 216.256 233.001 215.809 233.517C211.415 237.756 205.702 240.31 199.569 240.31H190.591C182.997 240.31 175.785 237.844 169.646 233.517ZM63.4441 202.51H130.629C130.173 201.332 129.656 200.23 129.306 199.548C129.206 199.383 129.122 199.211 129.039 199.039C128.928 198.807 128.817 198.577 128.666 198.367C126.076 194.8 122.26 192.755 118.185 192.755H78.6073C73.9864 192.755 69.6076 194.739 66.2852 198.346C66.0908 198.556 65.9332 198.792 65.7759 199.027C65.6574 199.205 65.539 199.382 65.4048 199.548C64.6554 200.446 63.9949 201.492 63.4441 202.51ZM127.89 219.93C127.486 220.647 127.06 221.343 126.615 222.02H62.4956C62.2763 221.336 62.0788 220.639 61.9022 219.93C61.5748 218.42 60.9326 214.948 60.9832 213.136C60.974 212.764 60.9713 212.392 60.9757 212.021H131.174C131.081 212.395 130.977 212.767 130.861 213.136C130.415 214.527 129.195 217.832 127.89 219.93ZM118.124 231.531H67.8636C68.4889 232.298 69.0835 233.001 69.5306 233.517C73.9246 237.756 79.6382 240.31 85.7709 240.31H94.7493C102.343 240.31 109.555 237.844 115.694 233.517C116.315 233.11 117.183 232.382 118.124 231.531Z" fill="#FF385C"/>
<path d="M156.336 93.9324L157.877 119.859L180.314 107.394L156.336 93.9324Z" fill="#FF9CAE"/>
<path d="M124.286 359.868C122.711 362.945 121.571 365.225 120.95 366.81C117.789 372.333 113.582 373.39 108.049 370.136C102.091 366.893 101.386 362.862 106.039 358.033C107.333 357.096 108.384 355.863 109.106 354.438C113.759 344.698 117.706 339.786 121.126 339.786C125.778 339.786 128.317 342.242 128.586 346.977C128.586 348.387 127.188 352.687 124.286 359.868Z" fill="#FF9CAE"/>
<path d="M272.544 271.439C284.564 255.648 290.449 238.105 290.263 218.801C289.569 213.102 286.325 210.304 280.523 210.304C272.637 210.304 269.57 213.195 271.228 218.977C271.756 228.458 270.886 236.261 268.43 242.405C264.472 252.145 260.089 259.43 255.354 264.248C252.722 269.429 254.297 273.201 260.006 275.563C265.446 278.112 269.653 276.796 272.544 271.439Z" fill="#FF9CAE"/>
<path d="M435.453 458C438.031 458 440.185 456.102 440.39 453.533C447.104 369.491 426.2 199.56 326.5 147.5C326.073 147.358 325.552 147.166 324.929 146.938C319.508 144.947 306.439 140.148 281.958 140.685C278.404 140.763 276.198 144.509 277.746 147.709L279.449 151.229C281.025 154.484 284.221 156.573 287.792 157.145C335.213 164.746 415.514 232.633 403.316 452.597C403.157 455.475 405.435 458 408.318 458H435.453Z" fill="#FF9CAE"/>
<path d="M75.7633 339.843C81.0032 338.005 90.6635 333.959 96.052 326.774C99.5396 322.124 95.97 317.49 92.5564 314.527C89.9615 312.274 86.2214 312.289 83.3965 314.245C80.1544 316.491 76.2273 319.716 75.1112 322.786C73.312 327.734 74.0076 335.193 74.4641 339.029C74.5387 339.655 75.1678 340.052 75.7633 339.843Z" fill="#FF9CAE"/>
</svg>
